public/topics/18.svg

<svg width="250" height="250" viewBox="0 0 250 250" fill="none" xmlns="http://www.w3.org/2000/svg">
<rect width="250" height="250" rx="30" fill="#333399"/>
<path d="M86.6 89.8C85.2667 115.933 84.6 136.733 84.6 152.2C84.6 160.2 84.8 167.8 85.2 175C86.2667 175.8 88.3333 176.2 91.4 176.2L96 176C97.8667 175.733 99.6 175.6 101.2 175.6C104.667 175.6 107.333 176.2 109.2 177.4C111.2 178.6 112.2 180.933 112.2 184.4C112.2 187.733 111.2 190.333 109.2 192.2C107.333 194.067 103.4 195 97.4 195C92.3333 195 86.2 194.6 79 193.8C77.2667 193.667 75.6 193.533 74 193.4C72.4 193.267 70.9333 193.2 69.6 193.2C62.2667 193.333 56.8 193.6 53.2 194C49.6 194.4 45.5333 194.6 41 194.6C36.8667 194.6 34.8 191.467 34.8 185.2C34.8 179.2 38.6667 176.2 46.4 176.2C47.6 176.2 49.5333 176.333 52.2 176.6C54.4667 177 56.8667 177.2 59.4 177.2C60.8667 177.2 62.0667 177.133 63 177C63.1333 168.067 63.6 155.067 64.4 138C65.2 118 65.6 103.2 65.6 93.6C64.9333 93.7333 62.6 94.6667 58.6 96.4C52.4667 99.4667 47.9333 101 45 101C43.4 101 41.9333 100.2 40.6 98.6C39.2667 96.8667 38.6 94.8667 38.6 92.6C38.6 90.3333 40 88.1333 42.8 86C45.6 83.8667 50.1333 81.0667 56.4 77.6C59.8667 75.8667 63.2 73.9333 66.4 71.8C67.2 71.2667 68.3333 70.7333 69.8 70.2C71.4 69.6667 72.6 69.4 73.4 69.4C76.8667 69.4 80 70.1333 82.8 71.6C85.7333 72.9333 87.2 74.7333 87.2 77L86.6 89.8ZM193.173 128.8C201.307 132 207.84 136.267 212.773 141.6C217.707 146.933 220.173 153.067 220.173 160C220.173 162 219.707 164.533 218.773 167.6C217.973 170.533 216.84 173.067 215.373 175.2C206.573 188.8 191.04 195.6 168.773 195.6C157.173 195.6 147.107 193.267 138.573 188.6C130.04 183.8 125.773 176.667 125.773 167.2C125.773 153.733 135.04 142.2 153.573 132.6C136.24 126.2 127.573 116.733 127.573 104.2C127.573 96.6 129.707 90.2 133.973 85C138.24 79.8 143.84 75.9333 150.773 73.4C157.84 70.8667 165.507 69.6 173.773 69.6C179.907 69.6 186.173 71.0667 192.573 74C198.973 76.8 203.373 80.4667 205.773 85C208.173 90.0667 209.373 94.8 209.373 99.2C209.373 104.933 208.173 110.2 205.773 115C203.507 119.8 199.307 124.4 193.173 128.8ZM172.373 122.8C176.64 120 179.907 117.733 182.173 116C184.573 114.133 186.573 111.933 188.173 109.4C189.907 106.733 190.773 103.667 190.773 100.2C190.773 96.2 189.173 92.8667 185.973 90.2C182.773 87.5333 178.907 86.2 174.373 86.2C164.64 86.2 157.84 87.8667 153.973 91.2C150.24 94.5333 148.373 98.4667 148.373 103C148.373 106.6 149.573 109.667 151.973 112.2C154.373 114.6 157.04 116.533 159.973 118C163.04 119.333 167.173 120.933 172.373 122.8ZM198.973 158.6C198.973 156.333 197.507 153.933 194.573 151.4C191.773 148.867 188.44 146.667 184.573 144.8C180.707 142.8 177.44 141.467 174.773 140.8C170.24 142.667 165.24 145.667 159.773 149.8C154.307 153.8 150.973 156.733 149.773 158.6C148.44 160.467 147.507 162.067 146.973 163.4C146.573 164.6 146.373 166.067 146.373 167.8C146.373 169.8 147.573 171.733 149.973 173.6C152.373 175.333 155.24 176.733 158.573 177.8C161.907 178.867 164.773 179.4 167.173 179.4C176.64 179.4 184.307 177.533 190.173 173.8C196.04 169.933 198.973 164.867 198.973 158.6Z" fill="white"/>
</svg>

<svg xmlns="http://www.w3.org/2000/svg" width="250" height="250" fill="none" viewBox="0 0 250 250"><rect width="250" height="250" fill="#339" rx="30"/><path fill="#fff" d="M86.6 89.8q-2 39.2-2 62.4 0 12 .6 22.8 1.6 1.2 6.2 1.2l4.6-.2q2.8-.4 5.2-.4 5.2 0 8 1.8 3 1.8 3 7 0 5-3 7.8-2.8 2.8-11.8 2.8-7.6 0-18.4-1.2a789 789 0 0 1-5-.4 54 54 0 0 0-4.4-.2q-11 .2-16.4.8t-12.2.6q-6.2 0-6.2-9.4 0-9 11.6-9 1.8 0 5.8.4 3.4.6 7.2.6 2.2 0 3.6-.2.2-13.4 1.4-39 1.2-30 1.2-44.4-1 .2-7 2.8Q49.4 101 45 101q-2.4 0-4.4-2.4-2-2.6-2-6t4.2-6.6 13.6-8.4a93 93 0 0 0 10-5.8q1.2-.8 3.4-1.6 2.4-.8 3.6-.8 5.2 0 9.4 2.2 4.4 2 4.4 5.4zm106.573 39q12.2 4.8 19.6 12.8t7.4 18.4q0 3-1.4 7.6-1.2 4.4-3.4 7.6-13.2 20.4-46.6 20.4-17.4 0-30.2-7-12.8-7.2-12.8-21.4 0-20.2 27.8-34.6-26-9.6-26-28.4 0-11.4 6.4-19.2t16.8-11.6q10.6-3.8 23-3.8 9.2 0 18.8 4.4 9.6 4.2 13.2 11 3.6 7.6 3.6 14.2 0 8.6-3.6 15.8-3.399 7.2-12.6 13.8m-20.8-6q6.4-4.2 9.8-6.8 3.6-2.8 6-6.6 2.6-4 2.6-9.2 0-6-4.8-10t-11.6-4q-14.6 0-20.4 5-5.6 5-5.6 11.8 0 5.4 3.6 9.2 3.6 3.6 8 5.8 4.6 2 12.4 4.8m26.6 35.8q0-3.4-4.4-7.2-4.2-3.8-10-6.6-5.8-3-9.8-4-6.8 2.8-15 9-8.2 6-10 8.8-2 2.8-2.8 4.8-.6 1.8-.6 4.4 0 3 3.6 5.8 3.6 2.6 8.6 4.2t8.6 1.6q14.2 0 23-5.6 8.8-5.8 8.8-15.2"/></svg>
